;FLAVOR:Marlin
;TIME:946
;Filament used: 0.417882m
;Layer height: 0.15
;MINX:94.213
;MINY:60.202
;MINZ:0.3
;MAXX:130.799
;MAXY:84.798
;MAXZ:22.8
;Generated with Cura_SteamEngine 4.3.0
M140 S60
M105
M190 S60
M104 S200
M105
M109 S200
M82 ;absolute extrusion mode
G28 ;Home
G1 Z15.0 F6000 ;Move the platform down 15mm
;Prime the extruder
G92 E0
G1 F200 E3
G92 E0
G92 E0
G92 E0
G1 F1500 E-6.5
;LAYER_COUNT:152
;LAYER:0
M107
G0 F3600 X96.224 Y65.741 Z0.3
;TYPE:SKIRT
G1 F1500 E0
G1 X96.556 Y65.277 E0.02846
G1 X97.011 Y64.689 E0.06556
G1 X97.525 Y64.089 E0.10497
G1 X97.89 Y63.73 E0.13052
G1 X98.434 Y63.228 E0.16745
G1 X99.041 Y62.722 E0.20687
G1 X99.421 Y62.454 E0.23007
G1 X100.044 Y62.042 E0.26733
G1 X100.724 Y61.64 E0.30674
G1 X101.202 Y61.41 E0.33321
G1 X101.883 Y61.11 E0.37033
G1 X102.621 Y60.829 E0.40973
G1 X103.097 Y60.691 E0.43446
G1 X103.821 Y60.506 E0.47174
G1 X104.595 Y60.349 E0.51114
G1 X105.09 Y60.291 E0.536
G1 X105.818 Y60.229 E0.57246
G1 X106.607 Y60.202 E0.61184
G1 X107.067 Y60.223 E0.63482
G1 X107.783 Y60.277 E0.67064
G1 X108.566 Y60.376 E0.71001
G1 X109.047 Y60.478 E0.73454
G1 X109.747 Y60.649 E0.77049
G1 X110.504 Y60.875 E0.80991
G1 X110.927 Y61.039 E0.83254
G1 X111.624 Y61.333 E0.87028
G1 X112.336 Y61.677 E0.90973
G1 X112.795 Y61.948 E0.93633
G1 X113.455 Y62.37 E0.97541
G1 X114.307 Y63.001 E1.0283
G1 X114.736 Y63.366 E1.05641
G1 X114.839 Y63.455 E1.0632
G1 X115.218 Y63.789 E1.0884
G1 X115.332 Y63.898 E1.09627
G1 X119.173 Y63.912 E1.2879
G1 X122.886 Y63.914 E1.47314
G1 X123.675 Y63.954 E1.51255
G1 X124.455 Y64.074 E1.55193
G1 X125.22 Y64.273 E1.59136
G1 X125.96 Y64.547 E1.63073
G1 X126.669 Y64.895 E1.67013
G1 X127.339 Y65.313 E1.70953
G1 X127.964 Y65.796 E1.74894
G1 X128.397 Y66.199 E1.77845
G1 X128.514 Y66.316 E1.78671
G1 X129.044 Y66.902 E1.82613
G1 X129.511 Y67.538 E1.86549
G1 X129.912 Y68.218 E1.90488
G1 X130.242 Y68.936 E1.9443
G1 X130.497 Y69.683 E1.98368
G1 X130.676 Y70.452 E2.02307
G1 X130.776 Y71.236 E2.0625
G1 X130.799 Y71.831 E2.09221
G1 X130.799 Y73.183 E2.15966
G1 X130.759 Y73.972 E2.19907
G1 X130.64 Y74.752 E2.23844
G1 X130.442 Y75.517 E2.27786
G1 X130.168 Y76.257 E2.31723
G1 X129.82 Y76.966 E2.35663
G1 X129.402 Y77.637 E2.39607
G1 X128.919 Y78.261 E2.43544
G1 X128.514 Y78.698 E2.46517
G1 X128.397 Y78.815 E2.47342
G1 X127.811 Y79.345 E2.51284
G1 X127.175 Y79.812 E2.55221
G1 X126.495 Y80.213 E2.59159
G1 X125.777 Y80.543 E2.63102
G1 X125.03 Y80.798 E2.67039
G1 X124.261 Y80.977 E2.70979
G1 X123.477 Y81.077 E2.74922
G1 X122.887 Y81.1 E2.77867
G1 X115.329 Y81.105 E3.15574
G1 X115.275 Y81.158 E3.15952
G1 X114.726 Y81.641 E3.196
G1 X114.633 Y81.722 E3.20215
G1 X114.315 Y81.993 E3.223
G1 X113.528 Y82.582 E3.27204
G1 X112.923 Y82.978 E3.30811
G1 X112.241 Y83.377 E3.34753
G1 X111.796 Y83.59 E3.37215
G1 X111.115 Y83.89 E3.40927
G1 X110.377 Y84.171 E3.44867
G1 X109.904 Y84.309 E3.47325
G1 X109.181 Y84.494 E3.51049
G1 X108.407 Y84.65 E3.54988
G1 X107.908 Y84.709 E3.57495
G1 X107.179 Y84.771 E3.61145
G1 X106.39 Y84.798 E3.65083
G1 X105.931 Y84.777 E3.67376
G1 X105.215 Y84.723 E3.70958
G1 X104.432 Y84.624 E3.74896
G1 X103.951 Y84.522 E3.77349
G1 X103.251 Y84.351 E3.80944
G1 X102.494 Y84.125 E3.84885
G1 X102.071 Y83.961 E3.87148
G1 X101.374 Y83.667 E3.90922
G1 X100.662 Y83.323 E3.94868
G1 X100.204 Y83.052 E3.97523
G1 X99.55 Y82.634 E4.01395
G1 X98.907 Y82.176 E4.05333
G1 X98.478 Y81.81 E4.08147
G1 X97.921 Y81.299 E4.11918
G1 X97.367 Y80.736 E4.15859
G1 X97.046 Y80.351 E4.18359
G1 X96.594 Y79.772 E4.22024
G1 X96.14 Y79.125 E4.25967
G1 X95.9 Y78.717 E4.28329
G1 X95.541 Y78.061 E4.3206
G1 X95.197 Y77.35 E4.36
G1 X95.007 Y76.851 E4.38664
G1 X94.764 Y76.144 E4.42394
G1 X94.545 Y75.385 E4.46335
G1 X94.451 Y74.919 E4.48707
G1 X94.327 Y74.191 E4.52391
G1 X94.234 Y73.407 E4.5633
G1 X94.216 Y72.913 E4.58796
G1 X94.213 Y72.192 E4.62393
G1 X94.25 Y71.404 E4.66329
G1 X94.31 Y70.932 E4.68703
G1 X94.423 Y70.223 E4.72285
G1 X94.587 Y69.451 E4.76222
G1 X94.719 Y69.007 E4.78533
G1 X94.951 Y68.304 E4.82226
G1 X95.236 Y67.567 E4.86169
G1 X95.454 Y67.118 E4.88659
G1 X95.821 Y66.42 E4.92593
G1 X96.224 Y65.741 E4.96532
G0 F3600 X96.568 Y65.945
G1 F1500 X96.873 Y65.521 E4.99138
G1 X97.328 Y64.933 E5.02847
G1 X97.829 Y64.35 E5.06682
G1 X98.162 Y64.024 E5.09007
G1 X98.706 Y63.522 E5.127
G1 X99.297 Y63.03 E5.16537
G1 X99.642 Y62.788 E5.18639
G1 X100.265 Y62.376 E5.22366
G1 X100.928 Y61.985 E5.26206
G1 X101.364 Y61.776 E5.28618
G1 X102.045 Y61.476 E5.32331
G1 X102.764 Y61.203 E5.36167
G1 X103.196 Y61.078 E5.38411
G1 X103.92 Y60.893 E5.42139
G1 X104.674 Y60.742 E5.45976
G1 X105.124 Y60.69 E5.48236
G1 X105.852 Y60.628 E5.51881
G1 X106.621 Y60.602 E5.5572
G1 X107.037 Y60.622 E5.57797
G1 X107.753 Y60.676 E5.6138
G1 X108.515 Y60.774 E5.65213
G1 X108.952 Y60.866 E5.67441
G1 X109.652 Y61.037 E5.71036
G1 X110.389 Y61.258 E5.74874
G1 X110.772 Y61.408 E5.76926
G1 X111.469 Y61.702 E5.807
G1 X112.161 Y62.037 E5.84536
G1 X112.579 Y62.285 E5.86961
G1 X113.239 Y62.707 E5.90869
G1 X114.048 Y63.306 E5.95891
G1 X114.477 Y63.671 E5.98701
G1 X114.575 Y63.755 E5.99345
G1 X114.954 Y64.089 E6.01866
G1 X115.172 Y64.297 E6.03369
G1 X119.172 Y64.312 E6.23325
G1 X122.886 Y64.314 E6.41854
G1 X123.654 Y64.354 E6.45691
G1 X124.414 Y64.474 E6.4953
G1 X125.157 Y64.672 E6.53366
G1 X125.876 Y64.947 E6.57206
G1 X126.562 Y65.294 E6.61042
G1 X127.208 Y65.711 E6.64878
G1 X127.808 Y66.192 E6.68714
G1 X128.115 Y66.481 E6.70818
G1 X128.232 Y66.598 E6.71643
G1 X128.746 Y67.17 E6.7548
G1 X129.199 Y67.792 E6.79319
G1 X129.585 Y68.457 E6.83155
G1 X129.9 Y69.159 E6.86994
G1 X130.14 Y69.89 E6.90832
G1 X130.303 Y70.641 E6.94666
G1 X130.387 Y71.406 E6.98506
G1 X130.399 Y71.831 E7.00627
G1 X130.399 Y73.183 E7.07372
G1 X130.359 Y73.951 E7.11209
G1 X130.24 Y74.711 E7.15047
G1 X130.042 Y75.454 E7.18883
G1 X129.768 Y76.173 E7.22722
G1 X129.421 Y76.859 E7.26557
G1 X129.005 Y77.506 E7.30395
G1 X128.524 Y78.106 E7.34231
G1 X128.232 Y78.416 E7.36356
G1 X128.115 Y78.533 E7.37181
G1 X127.543 Y79.047 E7.41018
G1 X126.921 Y79.5 E7.44857
G1 X126.256 Y79.886 E7.48693
G1 X125.554 Y80.201 E7.52532
G1 X124.823 Y80.441 E7.5637
G1 X124.072 Y80.604 E7.60204
G1 X123.307 Y80.688 E7.64044
G1 X122.887 Y80.7 E7.6614
G1 X115.168 Y80.705 E8.0465
G1 X115.011 Y80.858 E8.05744
G1 X114.462 Y81.341 E8.09392
G1 X114.374 Y81.417 E8.09972
G1 X114.056 Y81.688 E8.12057
G1 X113.309 Y82.248 E8.16714
G1 X112.704 Y82.644 E8.20322
G1 X112.039 Y83.031 E8.24161
G1 X111.634 Y83.224 E8.26399
G1 X110.953 Y83.524 E8.30111
G1 X110.234 Y83.797 E8.33948
G1 X109.804 Y83.921 E8.36181
G1 X109.081 Y84.106 E8.39904
G1 X108.327 Y84.258 E8.43742
G1 X107.874 Y84.31 E8.46017
G1 X107.145 Y84.372 E8.49667
G1 X106.376 Y84.398 E8.53505
G1 X105.961 Y84.378 E8.55578
G1 X105.245 Y84.324 E8.59161
G1 X104.483 Y84.226 E8.62994
G1 X104.046 Y84.134 E8.65222
G1 X103.346 Y83.963 E8.68817
G1 X102.609 Y83.742 E8.72655
G1 X102.226 Y83.592 E8.74707
G1 X101.529 Y83.298 E8.78481
G1 X100.837 Y82.963 E8.82317
G1 X100.42 Y82.715 E8.84738
G1 X99.766 Y82.297 E8.8861
G1 X99.14 Y81.85 E8.92448
G1 X98.748 Y81.515 E8.9502
G1 X98.191 Y81.004 E8.98791
G1 X97.652 Y80.455 E9.0263
G1 X97.361 Y80.105 E9.049
G1 X96.909 Y79.526 E9.08565
G1 X96.468 Y78.896 E9.12402
G1 X96.25 Y78.525 E9.14549
G1 X95.891 Y77.869 E9.18279
G1 X95.558 Y77.176 E9.22115
G1 X95.385 Y76.721 E9.24544
G1 X95.142 Y76.014 E9.28273
G1 X94.93 Y75.275 E9.32109
G1 X94.845 Y74.852 E9.34262
G1 X94.721 Y74.124 E9.37946
G1 X94.631 Y73.36 E9.41784
G1 X94.616 Y72.912 E9.4402
G1 X94.613 Y72.191 E9.47617
G1 X94.65 Y71.423 E9.51453
G1 X94.705 Y70.995 E9.53606
G1 X94.818 Y70.286 E9.57188
G1 X94.979 Y69.534 E9.61025
G1 X95.099 Y69.132 E9.63118
G1 X95.331 Y68.429 E9.66811
G1 X95.609 Y67.712 E9.70648
G1 X95.808 Y67.304 E9.72913
G1 X96.175 Y66.606 E9.76847
G1 X96.568 Y65.945 E9.80683
G0 F3600 X96.912 Y66.15
G1 F1500 X97.189 Y65.766 E9.83046
G1 X97.644 Y65.178 E9.86755
G1 X98.133 Y64.612 E9.90487
G1 X98.433 Y64.318 E9.92582
G1 X98.977 Y63.816 E9.96275
G1 X99.553 Y63.338 E10.0001
G1 X99.863 Y63.121 E10.01897
G1 X100.486 Y62.709 E10.05624
G1 X101.131 Y62.331 E10.09354
G1 X101.525 Y62.142 E10.11534
G1 X102.206 Y61.842 E10.15246
G1 X102.906 Y61.577 E10.18981
G1 X103.295 Y61.466 E10.20999
G1 X104.019 Y61.281 E10.24727
G1 X104.753 Y61.135 E10.2846
G1 X105.158 Y61.088 E10.30495
G1 X105.886 Y61.026 E10.3414
G1 X107.006 Y61.021 E10.39728
G1 X107.722 Y61.075 E10.4331
G1 X108.464 Y61.171 E10.47042
G1 X108.857 Y61.255 E10.49047
G1 X109.557 Y61.426 E10.52642
G1 X110.617 Y61.776 E10.58212
G1 X111.314 Y62.07 E10.61986
G1 X111.986 Y62.397 E10.65714
G1 X112.364 Y62.622 E10.67909
G1 X113.024 Y63.044 E10.71817
G1 X113.789 Y63.611 E10.76568
G1 X114.218 Y63.976 E10.79378
G1 X114.31 Y64.055 E10.79983
G1 X114.689 Y64.389 E10.82503
G1 X115.013 Y64.696 E10.8473
G1 X119.17 Y64.712 E11.0547
G1 X122.886 Y64.714 E11.24009
G1 X123.633 Y64.754 E11.27741
G1 X124.371 Y64.874 E11.31471
G1 X125.093 Y65.072 E11.35206
G1 X125.789 Y65.346 E11.38938
G1 X126.452 Y65.693 E11.42671
G1 X127.074 Y66.108 E11.46402
G1 X127.832 Y66.764 E11.51403
G1 X127.949 Y66.881 E11.52228
G1 X128.449 Y67.438 E11.55963
G1 X128.886 Y68.044 E11.5969
G1 X129.257 Y68.694 E11.63424
G1 X129.556 Y69.38 E11.67158
G1 X129.78 Y70.094 E11.70891
G1 X129.927 Y70.827 E11.74621
G1 X129.999 Y71.831 E11.79643
G1 X129.999 Y73.183 E11.86388
G1 X129.959 Y73.93 E11.9012
G1 X129.84 Y74.668 E11.93849
G1 X129.642 Y75.39 E11.97584
G1 X129.369 Y76.086 E12.01314
G1 X129.022 Y76.749 E12.05048
G1 X128.607 Y77.372 E12.08782
G1 X127.949 Y78.133 E12.13801
G1 X127.832 Y78.25 E12.14627
G1 X127.275 Y78.75 E12.18361
G1 X126.669 Y79.187 E12.22089
G1 X126.019 Y79.558 E12.25822
G1 X125.333 Y79.857 E12.29556
G1 X124.619 Y80.081 E12.33289
G1 X123.886 Y80.228 E12.37019
G1 X122.887 Y80.3 E12.42016
G1 X115.006 Y80.305 E12.81334
G1 X114.747 Y80.558 E12.83141
G1 X114.198 Y81.041 E12.86789
G1 X114.114 Y81.113 E12.87341
G1 X113.796 Y81.384 E12.89425
G1 X113.09 Y81.913 E12.93827
G1 X112.485 Y82.309 E12.97434
G1 X111.838 Y82.685 E13.01167
G1 X111.473 Y82.858 E13.03183
G1 X110.792 Y83.158 E13.06895
G1 X110.092 Y83.423 E13.10629
G1 X109.705 Y83.534 E13.12638
G1 X108.982 Y83.719 E13.16361
G1 X108.249 Y83.865 E13.2009
G1 X107.84 Y83.912 E13.22144
G1 X107.111 Y83.974 E13.25794
G1 X105.992 Y83.979 E13.31377
G1 X105.276 Y83.925 E13.34959
G1 X104.534 Y83.829 E13.38692
G1 X104.141 Y83.745 E13.40697
G1 X103.441 Y83.574 E13.44292
G1 X102.381 Y83.224 E13.49861
G1 X101.684 Y82.93 E13.53635
G1 X101.012 Y82.603 E13.57364
G1 X100.635 Y82.378 E13.59554
G1 X99.981 Y81.96 E13.63426
G1 X99.373 Y81.524 E13.67159
G1 X99.019 Y81.22 E13.69487
G1 X98.462 Y80.709 E13.73258
G1 X97.938 Y80.175 E13.76991
G1 X97.676 Y79.858 E13.79042
G1 X97.224 Y79.279 E13.82707
G1 X96.796 Y78.666 E13.86437
G1 X96.601 Y78.332 E13.88366
G1 X96.242 Y77.676 E13.92097
G1 X95.919 Y77.002 E13.95826
G1 X95.763 Y76.591 E13.98019
G1 X95.52 Y75.884 E14.01749
G1 X95.315 Y75.165 E14.05479
G1 X95.239 Y74.784 E14.07417
G1 X95.115 Y74.056 E14.11102
G1 X95.029 Y73.313 E14.14833
G1 X95.016 Y72.91 E14.16845
G1 X95.013 Y72.189 E14.20442
G1 X95.05 Y71.442 E14.24173
G1 X95.1 Y71.058 E14.26105
G1 X95.213 Y70.349 E14.29687
G1 X95.37 Y69.618 E14.33417
G1 X95.479 Y69.257 E14.35299
G1 X95.711 Y68.554 E14.38992
G1 X95.983 Y67.857 E14.42725
G1 X96.162 Y67.49 E14.44762
G1 X96.529 Y66.792 E14.48696
G1 X96.912 Y66.15 E14.52426
G0 F3600 X97.256 Y66.355
G1 F1500 X97.505 Y66.011 E14.54545
G1 X97.96 Y65.423 E14.58254
G1 X98.436 Y64.874 E14.61879
G1 X98.704 Y64.612 E14.63749
G1 X99.248 Y64.11 E14.67442
G1 X100.083 Y63.455 E14.72736
G1 X100.706 Y63.043 E14.76463
G1 X101.333 Y62.676 E14.80087
G1 X101.686 Y62.508 E14.82038
G1 X102.367 Y62.208 E14.8575
G1 X103.394 Y61.853 E14.91171
G1 X104.118 Y61.668 E14.949
G1 X104.831 Y61.528 E14.98525
G1 X105.192 Y61.487 E15.00337
G1 X105.92 Y61.425 E15.03982
G1 X106.976 Y61.42 E15.09251
G1 X107.692 Y61.474 E15.12833
G1 X108.762 Y61.644 E15.18238
G1 X109.462 Y61.815 E15.21833
G1 X110.461 Y62.145 E15.27082
G1 X111.158 Y62.439 E15.30856
G1 X111.811 Y62.758 E15.34482
G1 X112.148 Y62.959 E15.3644
G1 X112.808 Y63.381 E15.40348
G1 X113.53 Y63.915 E15.44828
G1 X113.959 Y64.28 E15.47638
G1 X114.046 Y64.355 E15.48212
G1 X114.425 Y64.689 E15.50732
G1 X114.779 Y65.026 E15.5317
G1 X114.847 Y65.096 E15.53657
G1 X119.169 Y65.112 E15.7522
G1 X122.886 Y65.114 E15.93764
G1 X123.611 Y65.154 E15.97387
G1 X124.327 Y65.274 E16.01009
G1 X125.026 Y65.472 E16.04633
G1 X125.699 Y65.745 E16.08256
G1 X126.338 Y66.091 E16.11882
G1 X126.935 Y66.505 E16.15506
G1 X127.549 Y67.047 E16.19592
G1 X127.666 Y67.164 E16.20418
G1 X128.15 Y67.705 E16.24039
G1 X128.573 Y68.296 E16.27665
G1 X128.927 Y68.93 E16.31288
G1 X129.21 Y69.599 E16.34912
G1 X129.418 Y70.295 E16.38536
G1 X129.548 Y71.01 E16.42162
G1 X129.599 Y71.831 E16.46266
G1 X129.599 Y73.183 E16.53011
G1 X129.559 Y73.908 E16.56633
G1 X129.44 Y74.625 E16.60259
G1 X129.242 Y75.324 E16.63884
G1 X128.969 Y75.997 E16.67507
G1 X128.624 Y76.636 E16.7113
G1 X128.21 Y77.233 E16.74755
G1 X127.666 Y77.85 E16.78858
G1 X127.549 Y77.967 E16.79684
G1 X127.008 Y78.451 E16.83306
G1 X126.417 Y78.874 E16.86931
G1 X125.783 Y79.228 E16.90554
G1 X125.114 Y79.511 E16.94178
G1 X124.418 Y79.719 E16.97802
G1 X123.703 Y79.849 E17.01428
G1 X122.887 Y79.9 E17.05507
G1 X114.844 Y79.906 E17.45634
G1 X114.483 Y80.257 E17.48146
G1 X113.934 Y80.74 E17.51794
G1 X113.855 Y80.808 E17.52314
G1 X113.537 Y81.079 E17.54398
G1 X112.871 Y81.578 E17.5855
G1 X112.266 Y81.974 E17.62158
G1 X111.312 Y82.492 E17.67573
G1 X110.631 Y82.792 E17.71286
G1 X109.606 Y83.146 E17.76696
G1 X108.883 Y83.331 E17.80419
G1 X108.171 Y83.472 E17.84041
G1 X107.806 Y83.513 E17.85873
G1 X107.077 Y83.575 E17.89523
G1 X106.022 Y83.58 E17.94787
G1 X105.306 Y83.526 E17.98369
G1 X104.236 Y83.356 E18.03774
G1 X103.536 Y83.185 E18.07369
G1 X102.537 Y82.855 E18.12618
G1 X101.84 Y82.561 E18.16392
G1 X101.187 Y82.242 E18.20018
G1 X100.851 Y82.041 E18.21971
G1 X100.197 Y81.623 E18.25844
G1 X99.607 Y81.199 E18.29468
G1 X99.289 Y80.925 E18.31562
G1 X98.732 Y80.414 E18.35334
G1 X98.225 Y79.895 E18.38953
G1 X97.992 Y79.612 E18.40782
G1 X97.54 Y79.033 E18.44447
G1 X96.952 Y78.14 E18.49781
G1 X96.593 Y77.484 E18.53512
G1 X96.28 Y76.829 E18.57134
G1 X96.141 Y76.461 E18.59096
G1 X95.898 Y75.754 E18.62826
G1 X95.634 Y74.717 E18.68165
G1 X95.51 Y73.989 E18.71849
G1 X95.416 Y72.908 E18.77262
G1 X95.413 Y72.187 E18.8086
G1 X95.495 Y71.121 E18.86194
G1 X95.608 Y70.412 E18.89775
G1 X95.858 Y69.383 E18.95058
G1 X96.09 Y68.68 E18.98752
G1 X96.356 Y68.003 E19.02381
G1 X96.516 Y67.676 E19.04197
G1 X96.883 Y66.978 E19.08131
G1 X97.256 Y66.355 E19.11754
G0 F3600 X97.6 Y66.561
G1 F1500 X97.822 Y66.256 E19.13636
G1 X98.277 Y65.668 E19.17345
G1 X98.975 Y64.906 E19.22501
G1 X99.519 Y64.404 E19.26194
G1 X100.304 Y63.789 E19.31169
G1 X100.927 Y63.377 E19.34895
G1 X101.848 Y62.874 E19.40131
G1 X102.529 Y62.574 E19.43843
G1 X103.493 Y62.241 E19.48932
G1 X104.217 Y62.056 E19.5266
G1 X105.226 Y61.885 E19.57765
G1 X105.954 Y61.823 E19.61411
G1 X106.946 Y61.819 E19.6636
G1 X107.662 Y61.873 E19.69942
G1 X108.667 Y62.032 E19.75018
G1 X109.367 Y62.203 E19.78613
G1 X110.306 Y62.513 E19.83547
G1 X111.003 Y62.807 E19.87321
G1 X111.933 Y63.296 E19.92563
G1 X112.593 Y63.718 E19.96471
G1 X113.271 Y64.22 E20.0068
G1 X113.7 Y64.585 E20.0349
G1 X113.781 Y64.655 E20.04024
G1 X114.16 Y64.989 E20.06545
G1 X114.493 Y65.306 E20.08838
G1 X114.678 Y65.495 E20.10158
G1 X119.167 Y65.512 E20.32554
G1 X122.885 Y65.514 E20.51103
G1 X123.588 Y65.554 E20.54616
G1 X124.282 Y65.674 E20.5813
G1 X124.958 Y65.872 E20.61644
G1 X125.606 Y66.145 E20.65152
G1 X126.22 Y66.489 E20.68663
G1 X126.791 Y66.902 E20.72179
G1 X127.266 Y67.33 E20.75369
G1 X127.383 Y67.447 E20.76194
G1 X127.852 Y67.972 E20.79706
G1 X128.258 Y68.547 E20.83218
G1 X128.596 Y69.165 E20.86732
G1 X128.863 Y69.816 E20.90243
G1 X129.053 Y70.494 E20.93756
G1 X129.166 Y71.189 E20.97269
G1 X129.199 Y71.831 E21.00476
G1 X129.199 Y73.183 E21.07221
G1 X129.159 Y73.886 E21.10734
G1 X129.04 Y74.58 E21.14247
G1 X128.842 Y75.255 E21.17756
G1 X128.57 Y75.904 E21.21267
G1 X128.225 Y76.518 E21.24781
G1 X127.814 Y77.089 E21.28291
