;FLAVOR:Marlin
;TIME:1151
;Filament used: 0.498291m
;Layer height: 0.15
;MINX:98.65
;MINY:63.149
;MINZ:0.3
;MAXX:131.125
;MAXY:81.747
;MAXZ:22.8
;Generated with Cura_SteamEngine 4.3.0
M140 S60
M105
M190 S60
M104 S200
M105
M109 S200
M82 ;absolute extrusion mode
G28 ;Home
G1 Z15.0 F6000 ;Move the platform down 15mm
;Prime the extruder
G92 E0
G1 F200 E3
G92 E0
G92 E0
G92 E0
G1 F1500 E-6.5
;LAYER_COUNT:151
;LAYER:0
M107
G0 F3600 X100.154 Y67.772 Z0.3
;TYPE:SKIRT
G1 F1500 E0
G1 X100.647 Y67.154 E0.01972
G1 X100.917 Y66.864 E0.0296
G1 X101.059 Y66.719 E0.03467
G1 X101.64 Y66.183 E0.05439
G1 X102.271 Y65.709 E0.07407
G1 X102.947 Y65.301 E0.09377
G1 X103.661 Y64.964 E0.11346
G1 X104.406 Y64.7 E0.13318
G1 X104.9 Y64.571 E0.14592
G1 X105.124 Y64.52 E0.15165
G1 X105.902 Y64.384 E0.17135
G1 X106.69 Y64.327 E0.19106
G1 X107.479 Y64.35 E0.21075
G1 X108.262 Y64.453 E0.23045
G1 X109.031 Y64.634 E0.25015
G1 X109.777 Y64.893 E0.26985
G1 X110.08 Y65.033 E0.27818
G1 X110.269 Y64.871 E0.28439
G1 X110.917 Y64.419 E0.3041
G1 X111.607 Y64.036 E0.32378
G1 X112.332 Y63.724 E0.34347
G1 X113.086 Y63.487 E0.36319
G1 X113.859 Y63.327 E0.38288
G1 X114.645 Y63.246 E0.40259
G1 X115.231 Y63.238 E0.41721
G1 X118.265 Y63.31 E0.49291
G1 X118.536 Y63.251 E0.49983
G1 X119.321 Y63.163 E0.51954
G1 X119.799 Y63.149 E0.53146
G1 X123.105 Y63.151 E0.61393
G1 X123.893 Y63.191 E0.63362
G1 X124.674 Y63.311 E0.65333
G1 X125.438 Y63.51 E0.67302
G1 X126.179 Y63.784 E0.69273
G1 X126.888 Y64.132 E0.71243
G1 X127.558 Y64.55 E0.73213
G1 X128.182 Y65.034 E0.75183
G1 X128.615 Y65.436 E0.76657
G1 X128.84 Y65.661 E0.7745
G1 X129.37 Y66.247 E0.79421
G1 X129.837 Y66.883 E0.8139
G1 X130.238 Y67.563 E0.83359
G1 X130.568 Y68.281 E0.8533
G1 X130.823 Y69.028 E0.87299
G1 X131.002 Y69.797 E0.89269
G1 X131.102 Y70.581 E0.9124
G1 X131.125 Y71.176 E0.92725
G1 X131.125 Y73.76 E0.99171
G1 X131.085 Y74.549 E1.01142
G1 X130.966 Y75.329 E1.0311
G1 X130.768 Y76.094 E1.05081
G1 X130.494 Y76.834 E1.0705
G1 X130.146 Y77.543 E1.0902
G1 X129.728 Y78.214 E1.10992
G1 X129.245 Y78.838 E1.1296
G1 X128.84 Y79.275 E1.14447
G1 X128.723 Y79.392 E1.14859
G1 X128.137 Y79.922 E1.1683
G1 X127.501 Y80.389 E1.18799
G1 X126.821 Y80.79 E1.20768
G1 X126.103 Y81.12 E1.22739
G1 X125.356 Y81.375 E1.24708
G1 X124.587 Y81.554 E1.26678
G1 X123.803 Y81.654 E1.28649
G1 X123.214 Y81.677 E1.3012
G1 X116.236 Y81.683 E1.47526
G1 X115.676 Y81.726 E1.48927
G1 X114.887 Y81.747 E1.50896
G1 X114.099 Y81.688 E1.52867
G1 X113.322 Y81.549 E1.54836
G1 X112.562 Y81.333 E1.56807
G1 X111.829 Y81.041 E1.58775
G1 X111.128 Y80.676 E1.60747
G1 X110.468 Y80.243 E1.62716
G1 X110.128 Y79.966 E1.6381
G1 X109.61 Y80.187 E1.65215
G1 X108.856 Y80.422 E1.67185
G1 X108.082 Y80.579 E1.69155
G1 X107.297 Y80.657 E1.71123
G1 X106.562 Y80.658 E1.72956
G1 X106.344 Y80.648 E1.73501
G1 X105.558 Y80.572 E1.7547
G1 X104.783 Y80.417 E1.77442
G1 X104.029 Y80.184 E1.79411
G1 X103.301 Y79.876 E1.81382
G1 X102.609 Y79.496 E1.83352
G1 X102.026 Y79.1 E1.8511
G1 X101.839 Y78.96 E1.85693
G1 X101.232 Y78.455 E1.87662
G1 X100.679 Y77.892 E1.89631
G1 X100.185 Y77.275 E1.91603
G1 X99.757 Y76.612 E1.93571
G1 X99.397 Y75.909 E1.95541
G1 X99.145 Y75.273 E1.97248
G1 X99.077 Y75.077 E1.97765
G1 X98.856 Y74.318 E1.99737
G1 X98.713 Y73.542 E2.01706
G1 X98.65 Y72.755 E2.03675
G1 X98.666 Y71.965 E2.05646
G1 X98.83 Y70.836 E2.08492
G1 X98.874 Y70.637 E2.09
G1 X99.083 Y69.876 E2.10969
G1 X99.368 Y69.139 E2.1294
G1 X99.727 Y68.435 E2.14911
G1 X100.154 Y67.772 E2.16879
G0 F3600 X100.526 Y67.94
G1 F1500 X101.203 Y67.143 E2.19487
G1 X101.345 Y66.998 E2.19993
G1 X101.911 Y66.478 E2.21911
G1 X102.528 Y66.018 E2.2383
G1 X103.189 Y65.626 E2.25747
G1 X103.888 Y65.304 E2.27667
G1 X104.616 Y65.056 E2.29586
G1 X104.989 Y64.961 E2.30546
G1 X105.213 Y64.91 E2.31119
G1 X105.971 Y64.778 E2.33038
G1 X106.738 Y64.726 E2.34956
G1 X107.507 Y64.754 E2.36875
G1 X108.269 Y64.861 E2.38795
G1 X109.015 Y65.047 E2.40713
G1 X109.738 Y65.309 E2.42631
G1 X110.137 Y65.503 E2.43738
G1 X110.69 Y65.055 E2.45513
G1 X111.334 Y64.635 E2.47431
G1 X112.019 Y64.284 E2.49351
G1 X112.736 Y64.006 E2.51269
G1 X113.478 Y63.804 E2.53188
G1 X114.237 Y63.68 E2.55106
G1 X115.222 Y63.638 E2.57565
G1 X118.304 Y63.711 E2.65256
G1 X118.66 Y63.636 E2.66163
G1 X119.798 Y63.549 E2.6901
G1 X123.104 Y63.551 E2.77257
G1 X123.873 Y63.591 E2.79178
G1 X124.632 Y63.711 E2.81095
G1 X125.376 Y63.91 E2.83016
G1 X126.094 Y64.184 E2.84933
G1 X126.78 Y64.531 E2.86851
G1 X127.427 Y64.948 E2.88771
G1 X128.027 Y65.429 E2.90689
G1 X128.333 Y65.718 E2.91739
G1 X128.558 Y65.943 E2.92533
G1 X129.072 Y66.515 E2.94451
G1 X129.525 Y67.137 E2.96371
G1 X129.911 Y67.802 E2.98289
G1 X130.226 Y68.504 E3.00208
G1 X130.466 Y69.235 E3.02127
G1 X130.629 Y69.986 E3.04044
G1 X130.713 Y70.751 E3.05964
G1 X130.725 Y71.176 E3.07025
G1 X130.725 Y73.76 E3.1347
G1 X130.685 Y74.528 E3.15389
G1 X130.566 Y75.288 E3.17308
G1 X130.368 Y76.031 E3.19226
G1 X130.094 Y76.75 E3.21145
G1 X129.747 Y77.436 E3.23063
G1 X129.331 Y78.083 E3.24982
G1 X128.85 Y78.683 E3.269
G1 X128.558 Y78.993 E3.27962
G1 X128.441 Y79.11 E3.28375
G1 X127.869 Y79.624 E3.30293
G1 X127.247 Y80.077 E3.32213
G1 X126.582 Y80.463 E3.34131
G1 X125.88 Y80.778 E3.3605
G1 X125.149 Y81.018 E3.37969
G1 X124.398 Y81.181 E3.39886
G1 X123.633 Y81.265 E3.41806
G1 X123.214 Y81.277 E3.42852
G1 X116.219 Y81.283 E3.60301
G1 X115.646 Y81.327 E3.61735
G1 X114.877 Y81.346 E3.63653
G1 X114.11 Y81.286 E3.65573
G1 X113.354 Y81.146 E3.6749
G1 X112.616 Y80.928 E3.6941
G1 X111.905 Y80.635 E3.71328
G1 X111.228 Y80.27 E3.73247
G1 X110.593 Y79.836 E3.75166
G1 X110.195 Y79.499 E3.76466
G1 X110.143 Y79.527 E3.76614
G1 X109.435 Y79.825 E3.7853
G1 X108.699 Y80.049 E3.80449
G1 X107.944 Y80.195 E3.82367
G1 X107.177 Y80.261 E3.84288
G1 X106.58 Y80.258 E3.85777
G1 X106.362 Y80.248 E3.86321
G1 X105.596 Y80.173 E3.88241
G1 X104.843 Y80.019 E3.90158
G1 X104.109 Y79.787 E3.92079
G1 X103.404 Y79.481 E3.93996
G1 X102.734 Y79.103 E3.95915
G1 X102.266 Y78.78 E3.97333
G1 X102.079 Y78.64 E3.97916
G1 X101.488 Y78.147 E3.99836
G1 X100.952 Y77.596 E4.01753
G1 X100.475 Y76.993 E4.03671
G1 X100.064 Y76.343 E4.0559
G1 X99.722 Y75.654 E4.07509
G1 X99.523 Y75.142 E4.08879
G1 X99.455 Y74.946 E4.09396
G1 X99.241 Y74.207 E4.11315
G1 X99.105 Y73.45 E4.13234
G1 X99.048 Y72.683 E4.15153
G1 X99.071 Y71.914 E4.17072
G1 X99.221 Y70.922 E4.19574
G1 X99.265 Y70.723 E4.20083
G1 X99.469 Y69.982 E4.22
G1 X99.75 Y69.266 E4.23919
G1 X100.104 Y68.583 E4.25838
G1 X100.526 Y67.94 E4.27756
G0 F3600 X100.897 Y68.111
G1 F1500 X101.489 Y67.423 E4.3002
G1 X101.631 Y67.278 E4.30527
G1 X102.182 Y66.773 E4.32391
G1 X102.784 Y66.329 E4.34257
G1 X103.43 Y65.951 E4.36124
G1 X104.113 Y65.645 E4.37991
G1 X105.078 Y65.351 E4.40507
G1 X105.302 Y65.3 E4.41081
G1 X106.039 Y65.173 E4.42946
G1 X106.786 Y65.125 E4.44813
G1 X107.533 Y65.158 E4.46679
G1 X108.273 Y65.27 E4.48546
G1 X108.996 Y65.46 E4.5041
G1 X109.695 Y65.727 E4.52277
G1 X110.211 Y65.989 E4.5372
G1 X110.515 Y65.701 E4.54765
G1 X111.11 Y65.248 E4.5663
G1 X111.75 Y64.861 E4.58496
G1 X112.428 Y64.545 E4.60362
G1 X113.135 Y64.302 E4.62227
G1 X113.865 Y64.137 E4.64094
G1 X114.608 Y64.05 E4.6596
G1 X115.212 Y64.038 E4.67467
G1 X118.338 Y64.112 E4.75267
G1 X118.782 Y64.023 E4.76397
G1 X119.798 Y63.949 E4.78938
G1 X123.104 Y63.951 E4.87185
G1 X123.851 Y63.991 E4.89051
G1 X124.59 Y64.111 E4.90918
G1 X125.311 Y64.309 E4.92783
G1 X126.007 Y64.583 E4.94649
G1 X126.67 Y64.93 E4.96516
G1 X127.292 Y65.345 E4.98381
G1 X128.05 Y66.001 E5.00882
G1 X128.275 Y66.226 E5.01675
G1 X128.775 Y66.783 E5.03543
G1 X129.212 Y67.389 E5.05406
G1 X129.583 Y68.039 E5.07273
G1 X129.882 Y68.725 E5.0914
G1 X130.106 Y69.439 E5.11007
G1 X130.253 Y70.172 E5.12872
G1 X130.325 Y71.176 E5.15383
G1 X130.325 Y73.76 E5.21828
G1 X130.285 Y74.507 E5.23694
G1 X130.166 Y75.245 E5.25559
G1 X129.968 Y75.967 E5.27427
G1 X129.695 Y76.663 E5.29292
G1 X129.348 Y77.326 E5.31158
G1 X128.933 Y77.949 E5.33026
G1 X128.275 Y78.71 E5.35535
G1 X128.158 Y78.827 E5.35948
G1 X127.601 Y79.327 E5.37815
G1 X126.995 Y79.764 E5.39679
G1 X126.345 Y80.135 E5.41546
G1 X125.659 Y80.434 E5.43412
G1 X124.945 Y80.658 E5.45279
G1 X124.212 Y80.805 E5.47144
G1 X123.214 Y80.877 E5.4964
G1 X116.201 Y80.883 E5.67134
G1 X115.615 Y80.928 E5.686
G1 X114.867 Y80.946 E5.70466
G1 X114.121 Y80.884 E5.72334
G1 X113.387 Y80.742 E5.74199
G1 X112.672 Y80.523 E5.76064
G1 X111.984 Y80.229 E5.7793
G1 X111.331 Y79.863 E5.79798
G1 X110.722 Y79.43 E5.81662
G1 X110.25 Y79.012 E5.83235
G1 X109.951 Y79.175 E5.84084
G1 X109.26 Y79.463 E5.85951
G1 X108.543 Y79.675 E5.87817
G1 X107.807 Y79.809 E5.89683
G1 X107.061 Y79.865 E5.91549
G1 X106.598 Y79.859 E5.92704
G1 X106.38 Y79.849 E5.93248
G1 X105.636 Y79.774 E5.95114
G1 X104.904 Y79.621 E5.96979
G1 X104.192 Y79.391 E5.98845
G1 X103.509 Y79.086 E6.00711
G1 X102.862 Y78.71 E6.02578
G1 X102.506 Y78.46 E6.03663
G1 X102.319 Y78.32 E6.04246
G1 X101.745 Y77.84 E6.06112
G1 X101.225 Y77.302 E6.07979
G1 X100.766 Y76.711 E6.09846
G1 X100.373 Y76.075 E6.11711
G1 X100.049 Y75.4 E6.13578
G1 X99.901 Y75.01 E6.14619
G1 X99.833 Y74.814 E6.15136
G1 X99.626 Y74.096 E6.17
G1 X99.496 Y73.359 E6.18867
G1 X99.447 Y72.612 E6.20735
G1 X99.477 Y71.865 E6.22599
G1 X99.611 Y71.009 E6.24761
G1 X99.655 Y70.81 E6.25269
G1 X99.855 Y70.089 E6.27136
G1 X100.131 Y69.394 E6.29001
G1 X100.48 Y68.732 E6.30868
G1 X100.897 Y68.111 E6.32734
G0 F3600 X101.268 Y68.285
G1 F1500 X101.775 Y67.703 E6.34659
G1 X101.917 Y67.558 E6.35165
G1 X102.453 Y67.068 E6.36977
G1 X103.039 Y66.64 E6.38787
G1 X103.669 Y66.278 E6.406
G1 X104.335 Y65.988 E6.42412
G1 X105.167 Y65.741 E6.44577
G1 X105.391 Y65.69 E6.4515
G1 X106.107 Y65.568 E6.46962
G1 X106.832 Y65.525 E6.48773
G1 X107.557 Y65.562 E6.50584
G1 X108.274 Y65.679 E6.52396
G1 X108.974 Y65.874 E6.54209
G1 X109.648 Y66.145 E6.56021
G1 X110.268 Y66.495 E6.57797
G1 X110.394 Y66.355 E6.58267
G1 X110.936 Y65.872 E6.60078
G1 X111.529 Y65.452 E6.61891
G1 X112.164 Y65.099 E6.63703
G1 X112.833 Y64.818 E6.65513
G1 X113.53 Y64.613 E6.67325
G1 X114.245 Y64.485 E6.69137
G1 X115.203 Y64.438 E6.7153
G1 X118.367 Y64.513 E6.79425
G1 X118.902 Y64.41 E6.80784
G1 X119.798 Y64.349 E6.83024
G1 X123.104 Y64.351 E6.91271
G1 X123.829 Y64.391 E6.93082
G1 X124.546 Y64.511 E6.94896
G1 X125.245 Y64.709 E6.96708
G1 X125.917 Y64.983 E6.98518
G1 X126.556 Y65.328 E7.0033
G1 X127.153 Y65.742 E7.02142
G1 X127.767 Y66.284 E7.04185
G1 X127.992 Y66.509 E7.04979
G1 X128.476 Y67.05 E7.06789
G1 X128.899 Y67.641 E7.08602
G1 X129.253 Y68.275 E7.10414
G1 X129.536 Y68.944 E7.12226
G1 X129.744 Y69.64 E7.14038
G1 X129.874 Y70.355 E7.15851
G1 X129.925 Y71.176 E7.17903
G1 X129.925 Y73.76 E7.24348
G1 X129.885 Y74.485 E7.2616
G1 X129.766 Y75.202 E7.27973
G1 X129.568 Y75.901 E7.29785
G1 X129.295 Y76.574 E7.31597
G1 X128.95 Y77.213 E7.33408
G1 X128.536 Y77.81 E7.3522
G1 X127.992 Y78.427 E7.37272
G1 X127.875 Y78.544 E7.37685
G1 X127.334 Y79.028 E7.39496
G1 X126.743 Y79.451 E7.41309
G1 X126.109 Y79.805 E7.4312
G1 X125.44 Y80.088 E7.44932
G1 X124.744 Y80.296 E7.46744
G1 X124.029 Y80.426 E7.48557
G1 X123.213 Y80.477 E7.50596
G1 X116.183 Y80.483 E7.68133
G1 X115.584 Y80.529 E7.69631
G1 X114.858 Y80.545 E7.71443
G1 X114.134 Y80.481 E7.73256
G1 X113.422 Y80.338 E7.75068
G1 X112.73 Y80.118 E7.76879
G1 X112.066 Y79.823 E7.78691
G1 X111.439 Y79.457 E7.80502
G1 X110.856 Y79.024 E7.82314
G1 X110.324 Y78.529 E7.84127
G1 X110.316 Y78.52 E7.84157
G1 X109.758 Y78.824 E7.85742
G1 X109.087 Y79.1 E7.87552
G1 X108.388 Y79.3 E7.89365
G1 X107.672 Y79.423 E7.91177
G1 X106.617 Y79.459 E7.93811
G1 X106.399 Y79.449 E7.94355
G1 X105.676 Y79.376 E7.96168
G1 X104.966 Y79.224 E7.97979
G1 X104.276 Y78.995 E7.99793
G1 X103.617 Y78.691 E8.01603
G1 X102.746 Y78.139 E8.04175
G1 X102.559 Y77.999 E8.04758
G1 X102.002 Y77.533 E8.0657
G1 X101.5 Y77.008 E8.08381
G1 X101.059 Y76.431 E8.10193
G1 X100.684 Y75.809 E8.12005
G1 X100.279 Y74.879 E8.14535
G1 X100.211 Y74.683 E8.15053
G1 X100.011 Y73.985 E8.16864
G1 X99.889 Y73.269 E8.18676
G1 X99.846 Y72.544 E8.20487
G1 X99.883 Y71.818 E8.22301
G1 X100.002 Y71.095 E8.24129
G1 X100.046 Y70.896 E8.24637
G1 X100.241 Y70.197 E8.26447
G1 X100.513 Y69.523 E8.2826
G1 X100.856 Y68.883 E8.30072
G1 X101.268 Y68.285 E8.31883
G0 F3600 X101.638 Y68.461
G1 F1500 X102.06 Y67.983 E8.33474
G1 X102.202 Y67.838 E8.3398
G1 X102.723 Y67.364 E8.35737
G1 X103.293 Y66.952 E8.37491
G1 X103.907 Y66.607 E8.39248
G1 X104.556 Y66.334 E8.41005
G1 X105.256 Y66.131 E8.42823
G1 X105.48 Y66.08 E8.43396
G1 X106.174 Y65.963 E8.45151
G1 X106.877 Y65.925 E8.46908
G1 X107.58 Y65.967 E8.48664
G1 X108.273 Y66.089 E8.5042
G1 X108.948 Y66.289 E8.52176
G1 X109.596 Y66.563 E8.53931
G1 X110.318 Y66.982 E8.56013
G1 X110.343 Y66.999 E8.56088
G1 X110.816 Y66.504 E8.57796
G1 X111.357 Y66.053 E8.59553
G1 X111.946 Y65.667 E8.6131
G1 X112.575 Y65.35 E8.63067
G1 X113.235 Y65.107 E8.64821
G1 X113.919 Y64.939 E8.66578
G1 X114.617 Y64.851 E8.68333
G1 X115.193 Y64.838 E8.69771
G1 X118.39 Y64.914 E8.77748
G1 X119.021 Y64.797 E8.79349
G1 X119.798 Y64.749 E8.81291
G1 X123.104 Y64.751 E8.89537
G1 X123.807 Y64.791 E8.91294
G1 X124.5 Y64.911 E8.93048
G1 X125.176 Y65.109 E8.94805
G1 X125.825 Y65.382 E8.96562
G1 X126.439 Y65.727 E8.98319
G1 X127.009 Y66.139 E9.00073
G1 X127.484 Y66.567 E9.01668
G1 X127.709 Y66.792 E9.02462
G1 X128.178 Y67.317 E9.04218
G1 X128.584 Y67.892 E9.05974
G1 X128.922 Y68.51 E9.07731
G1 X129.189 Y69.161 E9.09486
G1 X129.379 Y69.839 E9.11242
G1 X129.492 Y70.534 E9.12999
G1 X129.525 Y71.176 E9.14602
G1 X129.525 Y73.76 E9.21048
G1 X129.485 Y74.463 E9.22805
G1 X129.366 Y75.157 E9.24561
G1 X129.168 Y75.832 E9.26316
G1 X128.896 Y76.481 E9.28071
G1 X128.551 Y77.095 E9.29828
G1 X128.14 Y77.666 E9.31583
G1 X127.709 Y78.144 E9.33189
G1 X127.592 Y78.261 E9.33601
G1 X127.067 Y78.73 E9.35358
G1 X126.492 Y79.136 E9.37113
G1 X125.874 Y79.474 E9.3887
G1 X125.223 Y79.741 E9.40626
G1 X124.545 Y79.931 E9.42382
G1 X123.85 Y80.044 E9.44139
G1 X123.213 Y80.077 E9.4573
G1 X116.177 Y80.083 E9.63281
G1 X115.553 Y80.131 E9.64842
G1 X114.849 Y80.145 E9.66599
G1 X114.148 Y80.079 E9.68355
G1 X113.459 Y79.935 E9.70111
G1 X112.791 Y79.713 E9.71867
G1 X112.153 Y79.417 E9.73621
G1 X111.552 Y79.05 E9.75378
G1 X110.996 Y78.617 E9.77136
G1 X110.493 Y78.125 E9.78891
G1 X110.395 Y78.005 E9.79278
G1 X110.377 Y78.017 E9.79332
G1 X110.185 Y78.136 E9.79895
G1 X109.567 Y78.472 E9.8165
G1 X108.914 Y78.736 E9.83407
G1 X108.236 Y78.925 E9.85162
G1 X107.541 Y79.035 E9.86918
G1 X106.635 Y79.059 E9.89179
G1 X106.417 Y79.049 E9.89723
G1 X105.717 Y78.977 E9.91478
G1 X105.029 Y78.826 E9.93235
G1 X104.363 Y78.598 E9.94991
G1 X103.727 Y78.296 E9.96748
G1 X102.985 Y77.819 E9.98948
G1 X102.798 Y77.679 E9.99531
G1 X102.26 Y77.226 E10.01285
G1 X101.776 Y76.715 E10.03041
G1 X101.353 Y76.152 E10.04798
G1 X100.997 Y75.544 E10.06555
G1 X100.657 Y74.748 E10.08714
G1 X100.589 Y74.552 E10.09232
G1 X100.396 Y73.875 E10.10988
G1 X100.281 Y73.18 E10.12745
G1 X100.246 Y72.477 E10.14501
G1 X100.291 Y71.775 E10.16256
G1 X100.392 Y71.181 E10.17759
G1 X100.436 Y70.982 E10.18267
G1 X100.627 Y70.305 E10.20022
G1 X100.893 Y69.653 E10.21778
G1 X101.232 Y69.036 E10.23534
G1 X101.638 Y68.461 E10.2529
G0 F3600 X101.607 Y69.191
G1 F1500 X102.007 Y68.641 E10.26987
G1 X102.346 Y68.263 E10.28253
G1 X102.488 Y68.118 E10.2876
G1 X102.992 Y67.66 E10.30458
G1 X103.547 Y67.265 E10.32158
G1 X104.143 Y66.937 E10.33855
G1 X104.774 Y66.681 E10.35553
G1 X105.344 Y66.521 E10.3703
G1 X105.568 Y66.47 E10.37603
G1 X106.24 Y66.358 E10.39303
G1 X106.92 Y66.325 E10.41001
G1 X107.599 Y66.373 E10.42699
G1 X108.268 Y66.5 E10.44398
G1 X108.918 Y66.704 E10.46097
G1 X109.539 Y66.983 E10.47795
G1 X110.095 Y67.314 E10.49409
G1 X110.404 Y67.522 E10.50338
G1 X110.428 Y67.54 E10.50413
G1 X110.752 Y67.138 E10.51701
G1 X111.239 Y66.661 E10.53402
G1 X111.778 Y66.245 E10.551
G1 X112.362 Y65.895 E10.56799
G1 X112.983 Y65.616 E10.58497
G1 X113.632 Y65.411 E10.60195
G1 X114.301 Y65.284 E10.61893
G1 X115.184 Y65.238 E10.64099
G1 X118.427 Y65.315 E10.72191
G1 X118.466 Y65.303 E10.72293
G1 X119.137 Y65.186 E10.73992
G1 X119.798 Y65.149 E10.75643
G1 X123.104 Y65.151 E10.8389
